src/assets/svgs/cutouts/dispenserRight.svg

<svg viewBox="0 0 146.85 324.26">
  <g class="dullBlueDark">
    <path d="M3.42,323.76H143.43c.11-38.94,.38-77.89,.83-116.83-47.22,.11-94.45,.11-141.67,0,.45,38.94,.73,77.89,.83,116.83Z"/>
    <path d="M104.66,.98c-20.82-.64-41.64-.64-62.46,0,.33,27.2,.62,54.39,.88,81.59,20.23-.38,40.47-.38,60.7,0,.25-27.2,.55-54.39,.88-81.59Z"/>
  </g>
  <g class="dullBlueMedium">
    <path d="M144.26,206.93c-47.22,.11-94.45,.11-141.67,0-.49-40.97-1.18-81.95-2.09-122.91,48.59-2.27,97.26-2.27,145.85,0-.91,40.97-1.6,81.94-2.09,122.91Z"/>
    <path d="M95.86,8.97c-14.96-.31-29.91-.31-44.87,0,.07,7.74,.13,15.49,.19,23.23,14.83-.27,29.66-.27,44.48,0,.06-7.74,.13-15.49,.19-23.23Z"/>
    <path d="M133.83,314.4H13.02c-.1-32.54-.3-65.07-.6-97.61,40.67,.22,81.34,.22,122.01,0-.3,32.54-.5,65.07-.6,97.61Z"/>
  </g>
  <path class="paperLight" d="M128.88,191.16c-36.97-.12-73.94-.12-110.91,0-.32-30.68-.72-61.35-1.22-92.03,37.78-1.19,75.57-1.19,113.35,0-.5,30.68-.9,61.35-1.22,92.03Z"/>
  <g class="paperDark">
    <path d="M39.22,185.69c-5.35,.02-10.7,.03-16.04,.06-.26-27.07-.59-54.13-.97-81.19,5.45-.15,10.9-.27,16.35-.38,.26,27.17,.49,54.35,.67,81.52Z"/>
    <path d="M123.49,185.75c-5.35-.02-10.7-.04-16.04-.06,.18-27.17,.4-54.35,.66-81.52,5.45,.11,10.9,.24,16.35,.38-.39,27.07-.71,54.13-.97,81.2Z"/>
    <path d="M60.24,185.65c-5.35,0-10.69,.02-16.04,.03-.07-12.41-.15-24.83-.23-37.24,5.39-.05,10.78-.08,16.17-.1,.04,12.44,.07,24.88,.1,37.32Z"/>
    <path d="M81.44,185.64c-5.35,0-10.69,0-16.04,0-.02-12.44-.04-24.89-.06-37.33,5.39-.01,10.78-.01,16.17,0-.02,12.44-.04,24.89-.06,37.33Z"/>
    <path d="M102.46,185.68c-5.35-.01-10.69-.02-16.04-.03,.03-12.44,.07-24.88,.1-37.32,5.39,.02,10.78,.06,16.17,.1-.08,12.41-.16,24.83-.23,37.24Z"/>
    <path d="M103.01,104.08c-19.79-.3-39.58-.3-59.37,0,.11,13.22,.21,26.45,.31,39.67,19.59-.18,39.17-.18,58.76,0,.09-13.23,.19-26.45,.3-39.68Z"/>
  </g>
  <g class="steelMedium">
    <path d="M89.68,16.54c.01-1.94-2.95-1.98-2.96-.04-.01,2.63-.03,5.25-.04,7.88,0,2,2.94,2.04,2.95,.04,.02-2.62,.03-5.25,.05-7.87Z"/>
    <path d="M70.59,37.99c0,1.45,1.23,2.62,2.74,2.62,1.51,0,2.74-1.17,2.74-2.62,0-1.45-1.22-2.63-2.74-2.63s-2.74,1.18-2.74,2.63Z"/>
    <path d="M90.29,47.11c-1.82-.03-3.64-.05-5.46-.06,0,1.05,0,1.58-.01,2.63,1.82,.02,3.64,.04,5.45,.06,5.1-.11,4.93,7.28-.04,7.31-1.81-.02-3.63-.05-5.44-.06,0,1.05,0,1.58,0,2.63,1.81,.01,3.62,.03,5.44,.06,8.42-.24,8.49-12.28,.07-12.56Z"/>
    <path d="M62.06,56.99c-1.81,.02-3.63,.04-5.44,.06-5.06,.11-5.05-7.28-.04-7.31,1.82-.03,3.64-.05,5.45-.06,0-1.05,0-1.58-.01-2.63-1.82,.02-3.64,.04-5.46,.06-8.38,.38-8.39,12.42,.07,12.56,1.81-.02,3.62-.04,5.44-.06,0-1.05,0-1.58,0-2.63Z"/>
    <path d="M84.84,45.36c-7.61-.06-15.21-.06-22.82,0,.02,5.31,.04,10.63,.06,15.94,1.24-.01,1.86-.02,3.1-.02,.03,10.13,.05,20.26,.08,30.39,5.45-.02,10.89-.02,16.34,0,.02-10.13,.05-20.26,.08-30.39,1.24,0,1.86,.01,3.1,.02,.02-5.31,.04-10.63,.06-15.94Z"/>
  </g>
</svg>

<svg viewBox="0 0 146.85 324.26">
  <g class="dullBlueDark">
    <path d="M3.42,323.76h140q.15-58.42.83-116.83-70.83.16-141.67,0Q3.27,265.34,3.42,323.76Z"/>
    <path d="M104.66,1Q73.43,0,42.19,1q.51,40.79.88,81.59,30.36-.57,60.71,0Q104.16,41.77,104.66,1Z"/>
  </g>
  <g class="dullBlueMedium">
    <path d="M144.26,206.93q-70.83.16-141.67,0Q1.86,145.46.5,84q72.89-3.4,145.85,0Q145,145.46,144.26,206.93Z"/>
    <path d="M95.86,9Q73.42,8.52,51,9q.1,11.62.19,23.24,22.25-.41,44.49,0Q95.76,20.59,95.86,9Z"/>
    <path d="M133.83,314.4H13q-.15-48.81-.6-97.61,61,.33,122,0Q134,265.58,133.83,314.4Z"/>
  </g>
  <path class="newspaper" d="M128.88,191.16Q73.43,191,18,191.16q-.48-46-1.22-92,56.67-1.77,113.35,0Q129.35,145.15,128.88,191.16Z"/>
  <g class="print">
    <path d="M39.22,185.69q-8,0-16,.06-.41-40.6-1-81.2,8.18-.21,16.35-.38Q39,144.93,39.22,185.69Z"/>
    <path d="M123.49,185.75q-8,0-16-.06.27-40.77.67-81.52,8.17.15,16.35.38Q123.88,145.14,123.49,185.75Z"/>
    <path d="M60.24,185.65q-8,0-16,0Q44.1,167,44,148.43q8.09-.06,16.16-.1Q60.19,167,60.24,185.65Z"/>
    <path d="M81.44,185.64h-16l-.06-37.33H81.51Q81.47,167,81.44,185.64Z"/>
    <path d="M102.46,185.68q-8,0-16,0,0-18.66.11-37.32,8.09,0,16.16.1Q102.57,167.06,102.46,185.68Z"/>
    <path d="M103,104.08q-29.69-.45-59.36,0,.16,19.85.3,39.68,29.38-.27,58.76,0Q102.85,123.92,103,104.08Z"/>
  </g>
  <g class="steelMedium">
    <path d="M89.68,16.54a1.48,1.48,0,0,0-3,0c0,2.62,0,5.25,0,7.87a1.48,1.48,0,1,0,3,0C89.65,21.79,89.67,19.16,89.68,16.54Z"/>
    <path d="M70.59,38a2.74,2.74,0,1,0,2.74-2.63A2.68,2.68,0,0,0,70.59,38Z"/>
    <path d="M90.29,47.11l-5.46-.06c0,1.05,0,1.57,0,2.62l5.45.07c5.11-.12,4.93,7.27,0,7.31-1.81,0-3.63,0-5.44-.06,0,1,0,1.57,0,2.62l5.44.06C98.64,59.43,98.71,47.39,90.29,47.11Z"/>
    <path d="M62.06,57c-1.81,0-3.63,0-5.44.06-5.06.11-5-7.28,0-7.31L62,49.67c0-1.05,0-1.57,0-2.62l-5.46.06c-8.38.38-8.39,12.42.07,12.56l5.44-.06C62.07,58.56,62.06,58,62.06,57Z"/>
    <path d="M84.84,45.36q-11.41-.09-22.83,0,0,8,.07,15.94l3.1,0q0,15.19.08,30.38,8.16,0,16.33,0,0-15.19.08-30.38l3.1,0Q84.8,53.34,84.84,45.36Z"/>
  </g>
</svg>
